!!!!SEGMENT: pl-wnifc--13846--138_anonim--piesni-polskie-i-ruskie-ludu-galicyjskiego-138-tecze-riczka-newetyczka.krn
!!!kernsource:
!!!cenid: 18xx:3360
!!!COM: Anonim
!!!COM-rismID: pe30004985
!!!CDT:
!!!CNT:
!!!GTL: Pieśni polskie i ruskie ludu galicyjskiego
!!!OTL: 138. Tecze riczka newetyczka
!!!OMV: 138
!!!PDT: 1833
!!!AGN:
!!!SMS-siglum: PL-Wnifc
!!!SMS-shelfmark: 13846
!!!SMS-shelfwork: 001-138 G
!!!SMS-variant:
!!!SMS-altvar:
!!!NIFC-rismSourceID: 1001036701
!!!NIFC-rismChildID: 1001039646
!!!NIFC-islandoraID: nifc:210326
!!!URL-pdf-islandora: https://repozytorium.nifc.pl/islandora/object/nifc%3A210326/datastream/PDF/view
!!!URL-scan:
!!!ONB-nifc:
!!!OMD: Kołomyika
!!!AIN: 1 piano 1 vox
!!!key: d
**kern	**kern	**kern	**text
*part2	*part2	*part1	*part1
*staff3	*staff2	*staff1	*staff1
*I"Fortepian	*I"Fortepian	*I"Głos	*
*Ipiano	*Ipiano	*Ivox	*
*ICklav	*ICklav	*ICvox	*
*IGacmp	*IGacmp	*IGsolo	*
*clefF4	*clefG2	*clefG2	*
*k[b-]	*k[b-]	*k[b-]	*
*d:	*d:	*d:	*
*M2/4	*M2/4	*M2/4	*
=1	=1	=1	=1
!	!	!LO:TX:a:t=E.231.	!
.	8qa/	.	.
*tremolo	*	*	*
!LO:TX:b:t=....	!	!	!
8DD/L 8AA/ 8D/	8aa\	8a/	Te-
8DD/ 8AA/ 8D/	(>16gg#X\LL	(<16g#X/LL	-cze
.	16aa\JJ)	16a/JJ)	.
.	(<8qbb-/	8qb-/	.
8DD/ 8AA/ 8D/	8aa\)	8a/	ricz-
8DD/J 8AA/ 8D/	(>16ggn\LL	(<16gn/LL	-ka
.	16ff\JJ)	16f/JJ)	.
=2	=2	=2	=2
!LO:TX:b:t=....	!	!	!
8DD/L 8AA/ 8D/	8ff\	8f/	ne-
8DD/ 8AA/ 8D/	(>16ee\LL	(<16e/LL	-we-
.	16ff\JJ)	16f/JJ)	.
8DD/ 8AA/ 8D/	(>16ff\LL	(<16f/LL	-tycz-
.	16cc#X\JJ)	16c#X/JJ)	.
8DD/J 8AA/ 8D/	8dd\	8d/	-ka,
!!LO:LB:g=original
=3	=3	=3	=3
!LO:TX:b:t=....	!	!	!
8DD/L 8AA/ 8D/	8aa\	8a/	pi-
8DD/ 8AA/ 8D/	(>16gg#X\LL	(<16g#X/LL	-du
.	16aa\JJ)	16a/JJ)	.
.	(<8qbb-/	(<8qb-/	.
8DD/ 8AA/ 8D/	8aa\)	8a/)	pe-
8DD/J 8AA/ 8D/	(>16ggn\LL	(<16gn/LL	-re
.	16ff\JJ)	16f/JJ)	.
*Xtremolo	*	*	*
=4	=4	=4	=4
4DD/ 4AA/ 4D/	(>8.ff\L	(<8.f/L	sko-
!	!LO:N:vis=32.	!LO:N:vis=32.	!
.	32ee\LL	32e/LL	.
.	32dd\JJJ)	32d/JJJ)	.
4DD/ 4AA/ 4D/	4dd\	4d/	-czu,
!!LO:LB:g=original
=5	=5	=5	=5
*tremolo	*	*	*
!LO:TX:b:t=....	!	!	!
8AAA/L 8DD/ 8AA/	8aa\	8a/	wy-
8AAA/ 8DD/ 8AA/	(>16gg#X\LL	(<16g#X/LL	-daj
.	16aa\JJ)	16a/JJ)	.
.	(<8qbb-/	.	.
8AAA/ 8DD/ 8AA/	8aa\)	8a/	me-
8AAA/J 8DD/ 8AA/	(>16ggn\LL	(<16gn/LL	-ne,
.	16ff\JJ)	16f/JJ)	.
=6	=6	=6	=6
!LO:TX:b:t=....	!	!	!
8AAA/L 8DD/ 8AA/	(>16ee\LL	(<16e/LL	mo-
.	16dd\JJ)	16d/JJ)	.
8AAA/ 8DD/ 8AA/	(>16gg\LL	(<16g/LL	-ja
.	16ff\JJ)	16f/JJ)	.
8AAA/ 8DD/ 8AA/	(>16ee\LL	(<16e/LL	ma-
.	16dd\JJ)	16d/JJ)	.
8AAA/J 8DD/ 8AA/	8dd\	8d/	-ty,
!!LO:LB:g=original
=7	=7	=7	=7
!LO:TX:b:t=....	!	!	!
8AAA/L 8DD/ 8AA/	8dd\	8d/	za
!	!LO:TX:t=P:problem=mixed beam	!	!
8AAA/ 8DD/ 8AA/	(>16dd\LL	8d/	ko-
.	16d/JJ)	.	.
8AAA/ 8DD/ 8AA/	8dd\	8d/	-ho
!	!LO:TX:t=P:problem=mixed beam	!	!
8AAA/J 8DD/ 8AA/	(>16dd\LL	8d/	ja
.	16d/JJ)	.	.
*Xtremolo	*	*	*
=8	=8	=8	=8
4DD|</ 4AA/	4dd|>\	4d/	cho-
4DD|</ 4AA/	8dd|>\	8d/	-czu.
.	8r	8r	.
!!LO:PB:g=original
==	==	==	==
*-	*-	*-	*-
!!!system-decoration: s1,{(s2,s3)}
!!!RDF**kern: < = below
!!!RDF**kern: > = above
!!!RDF**kern: | = vertical stroke
!!!ENC: Marta Chmielewska
!!!END: 2021-11-15
!!!YEC: Copyright 2022 Narodowy Instytut Fryderyka Chopina (https://polishscores.org)
!!!YEM: License CC-BY-4.0 (https://creativecommons.org/licenses/by/4.0)
